svgs/vespucci.svg

<?xml version="1.0" encoding="UTF-8" standalone="no"?>
<!-- Created with Inkscape (http://www.inkscape.org/) -->

<svg
   width="192"
   height="192"
   viewBox="0 0 192 192"
   version="1.1"
   id="svg5"
   xmlns="http://www.w3.org/2000/svg"
   xmlns:svg="http://www.w3.org/2000/svg">
  <defs
     id="defs2" />
  <g
     id="layer1">
    <path
       style="opacity:1;fill:none;stroke:#000000;stroke-width:12;stroke-linecap:round;stroke-linejoin:round;stroke-miterlimit:4;stroke-dasharray:none;stroke-opacity:1"
       d="m 62.401198,30.955652 5.750434,95.812168 C 100.25264,113.66709 129.90138,94.619355 161.15094,79.005706 164.15332,70.915199 169.26943,63.204615 170,54.705776 c 0,0 -5.85292,-26.859073 -7.97766,-32.452974 -10.91569,4.676795 -23.49869,7.590146 -35.69743,10.909881 C 115.633,28.867116 107.42206,22.914125 91.278189,22.260775 80.026675,27.747361 71.60426,28.730129 62.401198,30.955652 Z"
       id="path925" />
    <path
       style="opacity:1;fill:none;stroke:#000000;stroke-width:12;stroke-linecap:round;stroke-linejoin:round;stroke-miterlimit:4;stroke-dasharray:none;stroke-opacity:1"
       d="m 22.578308,22.315279 c 7.193051,0.415928 14.3861,1.846882 21.57915,7.187429 L 32.24417,163.29268 23.220051,162.8248 c 1.098034,-12.64402 5.255806,-23.47319 9.365167,-34.3311 C 30.311421,114.28769 26.490468,101.51842 21.999972,89.370935 25.055358,78.143819 27.92441,66.866474 32.769451,56.121875 31.104123,42.579482 27.053502,32.168675 22.578308,22.315279 Z"
       id="path4133" />
    <path
       style="opacity:1;fill:none;stroke:#000000;stroke-width:12;stroke-linecap:round;stroke-linejoin:round;stroke-miterlimit:4;stroke-dasharray:none;stroke-opacity:1"
       d="m 62.81186,167.91901 28.020715,-9.14739 c 9.283135,2.446 22.893955,7.11702 34.924795,10.97572 0,0 22.0327,-4.58534 33.49564,-8.7046 2.36363,-10.73616 4.7708,-21.5096 9.48271,-34.25681 -1.44916,-11.66117 -4.4606,-19.06814 -7.26555,-27.037445 z"
       id="path5327" />
  </g>
</svg>

<svg xmlns="http://www.w3.org/2000/svg" width="192" height="192" viewBox="0 0 192 192"><path d="m62.401 30.956 5.75 95.812c32.102-13.1 61.75-32.149 93-47.762 3.002-8.09 8.118-15.801 8.849-24.3 0 0-5.853-26.86-7.978-32.453-10.915 4.677-23.498 7.59-35.697 10.91-10.692-4.296-18.903-10.249-35.047-10.902-11.251 5.486-19.674 6.47-28.877 8.695ZM22.578 22.315c7.193.416 14.386 1.847 21.58 7.188l-11.914 133.79-9.024-.468c1.098-12.644 5.256-23.473 9.365-34.331C30.311 114.288 26.49 101.518 22 89.37c3.055-11.227 5.924-22.505 10.77-33.25-1.666-13.542-5.716-23.952-10.192-33.806ZM62.812 167.919l28.02-9.147c9.284 2.446 22.895 7.117 34.925 10.975 0 0 22.033-4.585 33.496-8.704 2.364-10.736 4.77-21.51 9.483-34.257-1.45-11.661-4.46-19.068-7.266-27.038z" style="opacity:1;fill:none;stroke:#000;stroke-width:12;stroke-linecap:round;stroke-linejoin:round;stroke-miterlimit:4;stroke-dasharray:none;stroke-opacity:1"/></svg>
